src/assets/images/home/icons/history.svg

<svg width="22" height="19" viewBox="0 0 22 19" fill="none" xmlns="http://www.w3.org/2000/svg">
<path d="M12.5544 0.77832C7.58444 0.77832 3.55444 4.80832 3.55444 9.77832H0.554443L4.44444 13.6683L4.51444 13.8083L8.55444 9.77832H5.55444C5.55444 5.90832 8.68444 2.77832 12.5544 2.77832C16.4244 2.77832 19.5544 5.90832 19.5544 9.77832C19.5544 13.6483 16.4244 16.7783 12.5544 16.7783C10.6244 16.7783 8.87444 15.9883 7.61444 14.7183L6.19444 16.1383C7.82444 17.7683 10.0644 18.7783 12.5544 18.7783C17.5244 18.7783 21.5544 14.7483 21.5544 9.77832C21.5544 4.80832 17.5244 0.77832 12.5544 0.77832ZM11.5544 5.77832V10.7783L15.8344 13.3183L16.5544 12.1083L13.0544 10.0283V5.77832H11.5544Z" fill="#F6F8FB"/>
</svg>

<svg fill="none" xmlns="http://www.w3.org/2000/svg" viewBox="0 0 22 19"><path d="M12.55.78a9 9 0 0 0-9 9h-3l3.9 3.89.06.14 4.04-4.03h-3a7 7 0 1 1 2.06 4.94L6.2 16.14A9 9 0 1 0 12.55.78Zm-1 5v5l4.28 2.54.72-1.21-3.5-2.08V5.78h-1.5Z" fill="#F6F8FB"/></svg>
